X:655
T:Blind Mary
C:O'Carolan
B:O'Neill's 655
Z: 1997 by John Chambers <jc@trillian.mit.edu>
N:"Very slow"
N:collected by F.O'Neill.
M:2/4
L:1/8
K:D
A \
|d2 dc|cB2 AF/G/|AB AF|E3 F/G/ \
|Af fe|dB AD/E/|FG FED|D3||
||d/e/ \
|fg fB|ec AB/c/|dD DE/F/|E3 A/G/ \
|FG Ad|fe d D/E/|FG FED|D3|]
